X: 202
T:Come by the Hills
N:Author: Tom Smith
N:Words: Gordon Smith
O:Irish
M:3/4
L:1/8
K:D % transposed from Eb
f4 ef|e4 dB|A4 A2|B2 d2 e2|d6-|d4 A2|
d2 e2 f2|g2 f2 e2|f2 e2 d2|B2 d2 f2|e6-|e4 fg|
a2 f2 e2|d4 ef|g2 a2 b2|a2 f2 e2|e6-|e4 de|
f4 ef|e2 d2 B2|A4 A2|B2 d2 e2|d6||
% C:\aaa\ABCcollections\all.abc

